!!!OTL-incipit: UNSER BRUDER MALCHER, DER WULLT A REITER WAEREN
!!!ARE: Europa, Mitteleuropa, Deutschland, Schlesien
!!!SCT: Z0228
!!!YEM: Copyright 1995, estate of Helmut Schaffrath.
**kern	**text
*ICvox	*
*M3/8	*
*k[]	*
*C:	*
=1	=1
!LO:TX:a:t=Schleſiſch.	!
{16cL	Unſer
16dJ	.
8e	Bruder
8f	.
=2	=2
8g	Malcher,
8g	.
16r}	.
{16e	der
=3	=3
16fL	wullt
16eJ	a
8f	Rei-
8d	-ter
=4	=4
8e	wä-
8c	-ren,
16r}	.
{16B	a
=5	=5
16cL	hatte
16dJ	.
8e	och
8f	ken
=6	=6
8g	Pferd
8g	nich,
16r}	.
{16e	da
=7	=7
16fL	kunnt
16eJ	a
8f	ke-
8d	-ner
=8	=8
4c	wärn,
16r}	.
{16g	die
=9	=9
16g	Mutter
16g	.
8g	nahm
16r	.
16g	die
=10	=10
16aL	ſchwarʒe
16gJ	.
8f	Kuh,
16r}	.
{16f	und
=11	=11
16dL	ſetʒt
16eJ	a
8f	Mal-
16r	.
16f	-cher
=12	=12
16gL	u-
16fJ	-ba
8e	ʒu,
8r}	.
=13	=13
{8g	reit,
8B	Malcher,
8B	.
=14	=14
(16cL	reit
16dJ)	.
(16eL	.
16fJ)	.
8g}	.
=15	=15
{8g	reit
8B	Malcher,
8B	.
=16	=16
4c	reit.
8r}	.
==	==
!!!AGN: Erzaehlung, lustige Romanze, Spott - Lied
!!!ONB: ESAC (Essen Associative Code) Database: ZUCCAL
!!!AMT: simple triple
!!!AIN: vox
!!!EED: Helmut Schaffrath
!!!EEV: 1.0
!!!GTL: III. Soldaten-, Jaeger-, Schiffer-, Fuhrmanns- und Handwerks-Lieder.
!!!URL-scan: https://www.digitale-sammlungen.de/de/view/bsb11160571?page=425
!!!ENC: Anna Maria Matuszewska
!!!EEV: 2025/01/29
*-	*-
